public/assets/img/face-frown-solid.svg

<?xml version="1.0" encoding="utf-8"?>
<!-- Generator: Adobe Illustrator 26.0.3, SVG Export Plug-In . SVG Version: 6.00 Build 0)  -->
<svg version="1.1" id="Layer_1" xmlns="http://www.w3.org/2000/svg" xmlns:xlink="http://www.w3.org/1999/xlink" x="0px" y="0px"
	 viewBox="0 0 512 512" style="enable-background:new 0 0 512 512;" xml:space="preserve">
<style type="text/css">
	.st0{fill:#E63947;}
</style>
<path class="st0" d="M0,256C0,114.6,114.6,0,256,0s256,114.6,256,256S397.4,512,256,512S0,397.4,0,256z M159.3,388.7
	c12.2-39.3,50.6-68.7,96.7-68.7s84.5,29.4,96.7,68.7c2.6,8.5,11.6,13.2,20,10.6c8.5-2.6,13.2-11.6,10.6-20
	c-16.5-53.2-67.5-92.2-127.3-92.2c-59.7,0-110.8,39-127.3,92.2c-2.6,8.4,2.1,17.4,10.6,20C147.7,401.9,156.7,397.2,159.3,388.7
	L159.3,388.7z M176.4,176c-17.7,0-32,14.3-32,32s14.3,32,32,32c17.6,0,32-14.3,32-32S194,176,176.4,176z M336.4,240
	c17.6,0,32-14.3,32-32s-14.4-32-32-32c-17.7,0-32,14.3-32,32S318.7,240,336.4,240z"/>
</svg>

<svg xmlns="http://www.w3.org/2000/svg" viewBox="0 0 512 512"><!--! Font Awesome Pro 6.0.0 by @fontawesome - https://fontawesome.com License - https://fontawesome.com/license (Commercial License) Copyright 2022 Fonticons, Inc. --><path d="M0 256C0 114.6 114.6 0 256 0C397.4 0 512 114.6 512 256C512 397.4 397.4 512 256 512C114.6 512 0 397.4 0 256zM159.3 388.7C171.5 349.4 209.9 320 256 320C302.1 320 340.5 349.4 352.7 388.7C355.3 397.2 364.3 401.9 372.7 399.3C381.2 396.7 385.9 387.7 383.3 379.3C366.8 326.1 315.8 287.1 256 287.1C196.3 287.1 145.2 326.1 128.7 379.3C126.1 387.7 130.8 396.7 139.3 399.3C147.7 401.9 156.7 397.2 159.3 388.7H159.3zM176.4 176C158.7 176 144.4 190.3 144.4 208C144.4 225.7 158.7 240 176.4 240C194 240 208.4 225.7 208.4 208C208.4 190.3 194 176 176.4 176zM336.4 240C354 240 368.4 225.7 368.4 208C368.4 190.3 354 176 336.4 176C318.7 176 304.4 190.3 304.4 208C304.4 225.7 318.7 240 336.4 240z"/></svg>
